svg/media/camera_2_off_fill.svg

<svg xmlns="http://www.w3.org/2000/svg" width="24" height="24" viewBox="0 0 24 24"><g fill="none" fill-rule="evenodd"><path d="M24,0 L24,24 L0,24 L0,0 L24,0 Z M12.5935,23.2578 L12.5819,23.2595 L12.5109,23.295 L12.4919,23.2987 L12.4767,23.295 L12.4057,23.2595 C12.3958,23.2564 12.387,23.259 12.3821,23.2649 L12.378,23.2758 L12.3609,23.7031 L12.3659,23.7235 L12.3769,23.7357 L12.4805,23.8097 L12.4953,23.8136 L12.5071,23.8097 L12.6107,23.7357 L12.6233,23.7197 L12.6267,23.7031 L12.6096,23.2758 C12.6076,23.2657 12.601,23.2593 12.5935,23.2578 Z M12.8584,23.1453 L12.8445,23.1473 L12.6598,23.2397 L12.6499,23.2499 L12.6472,23.2611 L12.6651,23.6906 L12.6699,23.7034 L12.6784,23.7105 L12.8793,23.8032 C12.8914,23.8069 12.9022,23.803 12.9078,23.7952 L12.9118,23.7812 L12.8777,23.1665 C12.8753,23.1546 12.8674,23.147 12.8584,23.1453 Z M12.143,23.1473 C12.1332,23.1424 12.1222,23.1453 12.1156,23.1526 L12.1099,23.1665 L12.0758,23.7812 C12.0751,23.7927 12.0828,23.8019 12.0926,23.8046 L12.1083,23.8032 L12.3092,23.7105 L12.3186,23.7024 L12.3225,23.6906 L12.3404,23.2611 L12.3372,23.2485 L12.3278,23.2397 L12.143,23.1473 Z"/><path fill="#09244B" d="M2.51494,2.51457 C2.87542923,2.15409 3.44266497,2.12636077 3.83495349,2.43139017 L3.92916,2.51458 L6.41467,5.00012 L6.58579,5.00012 L8.14645,3.43946 C8.3925875,3.1933225 8.71546359,3.04155594 9.05885174,3.0074602 L9.20711,3.00012 L14.7929,3.00012 C15.140975,3.00012 15.4765703,3.12111937 15.7435465,3.33981824 L15.8536,3.43946 L17.4142,5.00012 L20,5.00012 C21.0543909,5.00012 21.9181678,5.81599733 21.9945144,6.85085759 L22,7.00012 L22,19.0001 C22,19.3829 21.8924408,19.7405735 21.7059755,20.0445303 L21.6063,20.1919 L21.9872,20.5729 C22.3778,20.9634 22.3778,21.5966 21.9872,21.9871 C21.6267385,22.3475615 21.0594793,22.3752893 20.6672027,22.0702834 L20.573,21.9871 L2.51493,3.92878 C2.12441,3.53825 2.12442,2.90509 2.51494,2.51457 Z M2.10684,6.35348 L7.12733,11.374 C7.04402,11.7359 7,12.1129 7,12.5001 C7,15.2615 9.23858,17.5001 12,17.5001 C12.3872,17.5001 12.7642,17.4561 13.1261,17.3728 L16.7535,21.0001 L4,21.0001 C2.89543,21.0001 2,20.1047 2,19.0001 L2,7.00012 C2,6.77383 2.03758,6.55632 2.10684,6.35348 Z M12,7.50012 C11.1112,7.50012 10.2765,7.73205 9.5532,8.13869 L11.0636,9.64914 C11.3583,9.55243 11.673,9.50012 12,9.50012 C13.6569,9.50012 15,10.8433 15,12.5001 C15,12.8271 14.9477,13.1419 14.851,13.4365 L16.3614,14.947 C16.7681,14.2237 17,13.389 17,12.5001 C17,9.7387 14.7614,7.50012 12,7.50012 Z"/></g></svg>

<svg xmlns="http://www.w3.org/2000/svg" width="24" height="24"><g fill="none" fill-rule="evenodd"><path d="M24 0v24H0V0zM12.594 23.258l-.012.002-.071.035-.02.004-.014-.004-.071-.036c-.01-.003-.019 0-.024.006l-.004.01-.017.428.005.02.01.013.104.074.015.004.012-.004.104-.074.012-.016.004-.017-.017-.427c-.002-.01-.009-.017-.016-.018m.264-.113-.014.002-.184.093-.01.01-.003.011.018.43.005.012.008.008.201.092c.012.004.023 0 .029-.008l.004-.014-.034-.614c-.003-.012-.01-.02-.02-.022m-.715.002a.023.023 0 0 0-.027.006l-.006.014-.034.614c0 .012.007.02.017.024l.015-.002.201-.093.01-.008.003-.011.018-.43-.003-.012-.01-.01z"/><path fill="#09244B" d="M2.515 2.515a1 1 0 0 1 1.32-.084l.094.084L6.415 5h.17l1.561-1.56a1.5 1.5 0 0 1 .913-.433L9.207 3h5.586a1.5 1.5 0 0 1 .95.34l.11.1L17.415 5H20a2 2 0 0 1 1.995 1.85L22 7v12c0 .383-.108.74-.294 1.045l-.1.147.381.38a1 1 0 0 1-1.32 1.498l-.094-.083L2.515 3.93a1 1 0 0 1 0-1.414m-.408 3.838 5.02 5.021a5 5 0 0 0 5.999 5.999L16.753 21H4a2 2 0 0 1-2-2V7c0-.226.038-.444.107-.647M12 7.5c-.889 0-1.723.232-2.447.639l1.51 1.51a3 3 0 0 1 3.787 3.787l1.511 1.511A5 5 0 0 0 12 7.5"/></g></svg>
